poi/svg/1302.svg

<?xml version="1.0" encoding="UTF-8" standalone="no"?>
<svg
   xmlns:dc="http://purl.org/dc/elements/1.1/"
   xmlns:cc="http://creativecommons.org/ns#"
   xmlns:rdf="http://www.w3.org/1999/02/22-rdf-syntax-ns#"
   xmlns:svg="http://www.w3.org/2000/svg"
   xmlns="http://www.w3.org/2000/svg"
   xmlns:sodipodi="http://sodipodi.sourceforge.net/DTD/sodipodi-0.dtd"
   xmlns:inkscape="http://www.inkscape.org/namespaces/inkscape"
   inkscape:version="1.0 (4035a4fb49, 2020-05-01)"
   sodipodi:docname="1302.svg"
   id="svg20"
   version="1.2"
   viewBox="0 0 42.519639 42.519639"
   height="14.999999mm"
   width="14.999999mm">
  <metadata
     id="metadata24">
    <rdf:RDF>
      <cc:Work
         rdf:about="">
        <dc:format>image/svg+xml</dc:format>
        <dc:type
           rdf:resource="http://purl.org/dc/dcmitype/StillImage" />
        <dc:title>Qt SVG Document</dc:title>
      </cc:Work>
    </rdf:RDF>
  </metadata>
  <sodipodi:namedview
     inkscape:current-layer="svg20"
     inkscape:window-maximized="0"
     inkscape:window-y="0"
     inkscape:window-x="0"
     inkscape:cy="28.346482"
     inkscape:cx="28.346482"
     inkscape:zoom="5.8410537"
     showgrid="false"
     id="namedview22"
     inkscape:window-height="480"
     inkscape:window-width="1034"
     inkscape:pageshadow="2"
     inkscape:pageopacity="0"
     guidetolerance="10"
     gridtolerance="10"
     objecttolerance="10"
     borderopacity="1"
     bordercolor="#666666"
     pagecolor="#ffffff" />
  <title
     id="title2">Qt SVG Document</title>
  <desc
     id="desc4">Generated with Qt</desc>
  <defs
     id="defs6" />
  <g
     transform="translate(5.25984,5.25984)"
     id="g18"
     stroke-linejoin="bevel"
     stroke-linecap="square"
     fill-rule="evenodd"
     stroke-width="1"
     stroke="#000000"
     fill="none">
    <g
       id="g10"
       font-style="normal"
       font-weight="400"
       font-size="7.8px"
       font-family="'MS Shell Dlg 2'"
       stroke="none"
       fill-opacity="1"
       fill="#f7901e">
      <path
         id="path8"
         d="M 37.2598,16 C 37.2598,27.7415 27.7415,37.2598 16,37.2598 4.25851,37.2598 -5.25984,27.7415 -5.25984,16 -5.25984,4.25851 4.25851,-5.25984 16,-5.25984 27.7415,-5.25984 37.2598,4.25851 37.2598,16"
         fill-rule="evenodd"
         vector-effect="non-scaling-stroke" />
    </g>
    <g
       id="g14"
       font-style="normal"
       font-weight="400"
       font-size="7.8px"
       font-family="'MS Shell Dlg 2'"
       transform="translate(16,12.0315)"
       stroke="none"
       fill-opacity="0.94902"
       fill="#ffffff">
      <path
         id="path12"
         d="m 0.180176,-9.43262 c 1.889644,0 3.674314,0.36394 5.354004,1.0918 1.67969,0.72786 3.14242,1.72168 4.38818,2.98144 1.24574,1.25977 2.23254,2.7365 2.96044,4.430181 0.7279,1.693685 1.0918,3.499349 1.0918,5.416989 0,1.91765 -0.3639,3.71631 -1.0918,5.396 C 12.1549,11.5635 11.1681,13.0332 9.92236,14.293 8.6766,15.5527 7.21387,16.55 5.53418,17.2849 3.85449,18.0198 2.06982,18.3872 0.180176,18.3872 -1.73747,18.3872 -3.54313,18.0198 -5.23682,17.2849 -6.9305,16.55 -8.40723,15.5527 -9.66699,14.293 -10.9268,13.0332 -11.9241,11.5635 -12.6589,9.88379 c -0.7349,-1.67969 -1.1023,-3.47835 -1.1023,-5.396 0,-1.91764 0.3674,-3.723304 1.1023,-5.416989 0.7348,-1.693681 1.7321,-3.170411 2.99191,-4.430181 1.25976,-1.25976 2.73649,-2.25358 4.43017,-2.98144 1.69369,-0.72786 3.49935,-1.0918 5.416996,-1.0918 M 12.2109,3.54297 C 12.099,2.2832 11.8225,1.10042 11.3816,-0.00537109 10.9407,-1.11117 10.3633,-2.10498 9.64941,-2.98682 9.15951,-2.79085 8.6766,-2.59839 8.20068,-2.40942 7.72477,-2.22046 7.22786,-2.06999 6.70996,-1.95801 6.94792,-1.13216 7.12988,-0.257324 7.25586,0.666504 7.38184,1.59033 7.47282,2.54915 7.52881,3.54297 H 12.2109 M 8.38965,-4.45654 C 7.81576,-4.94645 7.21387,-5.39087 6.58398,-5.78979 5.9541,-6.18872 5.26823,-6.54215 4.52637,-6.8501 c 0.30794,0.47591 0.59839,0.97282 0.87134,1.49072 0.27294,0.51791 0.54239,1.0918 0.80834,1.72168 0.36394,-0.11197 0.72437,-0.23795 1.0813,-0.37793 0.35694,-0.13997 0.72437,-0.28694 1.1023,-0.44091 M 5.68115,3.54297 C 5.68115,2.66113 5.61816,1.79679 5.49219,0.949951 5.36621,0.103109 5.18424,-0.691243 4.94629,-1.43311 c -0.74186,0.13998 -1.51522,0.23796 -2.32007,0.29395 -0.80485,0.05599 -1.5922,0.08398 -2.36206,0.08398 -0.881836,0 -1.73918,-0.02799 -2.57202,-0.08398 -0.83285,-0.05599 -1.6412,-0.20296 -2.42505,-0.44092 -0.22396,0.811851 -0.39893,1.6481952 -0.5249,2.509035 C -5.38379,1.78979 -5.44678,2.66113 -5.44678,3.54297 H 5.68115 M -5.44678,5.30664 c 0,0.92383 0.06299,1.80916 0.18897,2.65601 0.12597,0.84684 0.30094,1.65519 0.5249,2.42505 0.78385,-0.14 1.56771,-0.2625 2.35156,-0.3674 0.78386,-0.10502 1.595705,-0.15751 2.4355492,-0.15751 0.8258468,0 1.6551908,0.05249 2.4880408,0.15751 0.83284,0.1049 1.63419,0.2274 2.40405,0.3674 C 5.18424,9.64583 5.36621,8.84448 5.49219,7.98364 5.61816,7.1228 5.68115,6.23047 5.68115,5.30664 H -5.44678 M 0.180176,-7.66895 c -0.895834,0 -1.721676,0.39893 -2.477536,1.19678 -0.75586,0.79785 -1.39274,1.88965 -1.91065,3.27539 0.74186,0.13998 1.48023,0.23796 2.21509,0.29395 0.73486,0.05599 1.487223,0.08398 2.25708,0.08398 0.657878,0 1.34725,-0.02799 2.06812,-0.08398 C 3.05314,-2.95882 3.75651,-3.0568 4.44238,-3.19678 3.92448,-4.58252 3.2911,-5.67432 2.54224,-6.47217 1.79338,-7.27002 1.00602,-7.66895 0.180176,-7.66895 M -4.29199,-6.8501 c -0.68587,0.25196 -1.33675,0.58439 -1.95264,0.99732 -0.61588,0.41292 -1.21077,0.87833 -1.78467,1.39624 0.36394,0.15397 0.70337,0.29394 1.01831,0.41992 0.31495,0.12598 0.66138,0.25895 1.03931,0.39892 0.26595,-0.62988 0.5319,-1.20377 0.79785,-1.72168 0.26595,-0.5179 0.5599,-1.01481 0.88184,-1.49072 m -4.99707,3.73731 c -1.56774,1.88965 -2.47054,4.108233 -2.70854,6.65576 h 4.70317 c 0.05599,-0.99382 0.14697,-1.95264 0.27295,-2.876466 0.12597,-0.923828 0.30794,-1.798664 0.54589,-2.624514 -0.4899,-0.16797 -0.97981,-0.34643 -1.46972,-0.5354 -0.48991,-0.18896 -0.93783,-0.39542 -1.34375,-0.61938 m -2.70854,8.41943 c 0.238,2.49154 1.0988,4.71716 2.58256,6.67676 0.48991,-0.238 0.97282,-0.4549 1.44873,-0.6509 0.47591,-0.1959 0.97282,-0.3709 1.49072,-0.5249 C -6.71354,9.98177 -6.89551,9.11043 -7.02148,8.1936 -7.14746,7.27677 -7.23844,6.31445 -7.29443,5.30664 h -4.70317 m 3.84233,7.99956 c 0.57389,0.5179 1.18978,0.9833 1.84765,1.3962 0.65788,0.4129 1.32976,0.7524 2.01563,1.0183 -0.32194,-0.4339 -0.61589,-0.9238 -0.88184,-1.4697 -0.26595,-0.5459 -0.5319,-1.1338 -0.79785,-1.7637 -0.37793,0.14 -0.74536,0.2765 -1.10229,0.4094 -0.35694,0.133 -0.71737,0.2695 -1.0813,0.4095 m 8.335446,3.2334 c 0.825844,0 1.613204,-0.3885 2.362064,-1.1653 C 3.2911,14.5974 3.92448,13.5231 4.44238,12.1514 3.68652,12.0114 2.95166,11.8889 2.23779,11.7839 1.52393,11.679 0.796061,11.6265 0.0541992,11.6265 c -0.7418622,0 -1.4662292,0.0455 -2.1730992,0.1364 -0.70686,0.091 -1.40324,0.1925 -2.08911,0.3045 0.51791,1.3717 1.15479,2.46 1.91065,3.2649 0.75586,0.8048 1.581702,1.2073 2.477536,1.2073 M 4.52637,15.7207 C 5.21224,15.4548 5.87712,15.1223 6.521,14.7234 7.16488,14.3245 7.74577,13.88 8.26367,13.3901 7.94173,13.2502 7.60929,13.1067 7.26636,12.9597 6.92342,12.8127 6.56999,12.6833 6.20605,12.5713 5.9401,13.2012 5.67065,13.7751 5.39771,14.293 5.12476,14.8109 4.83431,15.2868 4.52637,15.7207 M 9.64941,11.9834 C 10.3633,11.0596 10.9407,10.0378 11.3816,8.91797 11.8225,7.79818 12.099,6.5944 12.2109,5.30664 H 7.52881 C 7.47282,6.34245 7.38184,7.32576 7.25586,8.25659 7.12988,9.18742 6.94792,10.0658 6.70996,10.8916 c 0.5179,0.182 1.01481,0.3499 1.49072,0.5039 0.47592,0.154 0.95883,0.3499 1.44873,0.5879"
         fill-rule="evenodd"
         vector-effect="none" />
    </g>
    <g
       id="g16"
       font-style="normal"
       font-weight="400"
       font-size="7.8px"
       font-family="'MS Shell Dlg 2'"
       stroke="none"
       fill-opacity="1"
       fill="#f7901e" />
  </g>
</svg>

<?xml version="1.0" encoding="UTF-8" standalone="no"?>
<svg width="11.2889mm" height="11.2889mm"
 viewBox="0 0 32 32"
 xmlns="http://www.w3.org/2000/svg" xmlns:xlink="http://www.w3.org/1999/xlink"  version="1.2" baseProfile="tiny">
<title>Qt SVG Document</title>
<desc>Generated with Qt</desc>
<defs>
</defs>
<g fill="none" stroke="black" stroke-width="1" fill-rule="evenodd" stroke-linecap="square" stroke-linejoin="bevel" >

<g fill="#f7901e" fill-opacity="1" stroke="none" transform="matrix(1,0,0,1,0,0)"
font-family="MS Shell Dlg 2" font-size="7.8" font-weight="400" font-style="normal" 
>
<path vector-effect="non-scaling-stroke" fill-rule="evenodd" d="M37.2598,16 C37.2598,27.7415 27.7415,37.2598 16,37.2598 C4.25851,37.2598 -5.25984,27.7415 -5.25984,16 C-5.25984,4.25851 4.25851,-5.25984 16,-5.25984 C27.7415,-5.25984 37.2598,4.25851 37.2598,16 "/>
</g>

<g fill="#ffffff" fill-opacity="0.94902" stroke="none" transform="matrix(1,0,0,1,16,12.0315)"
font-family="MS Shell Dlg 2" font-size="7.8" font-weight="400" font-style="normal" 
>
<path vector-effect="none" fill-rule="evenodd" d="M0.180176,-9.43262 C2.06982,-9.43262 3.85449,-9.06868 5.53418,-8.34082 C7.21387,-7.61296 8.6766,-6.61914 9.92236,-5.35938 C11.1681,-4.09961 12.1549,-2.62288 12.8828,-0.929199 C13.6107,0.764486 13.9746,2.57015 13.9746,4.48779 C13.9746,6.40544 13.6107,8.2041 12.8828,9.88379 C12.1549,11.5635 11.1681,13.0332 9.92236,14.293 C8.6766,15.5527 7.21387,16.55 5.53418,17.2849 C3.85449,18.0198 2.06982,18.3872 0.180176,18.3872 C-1.73747,18.3872 -3.54313,18.0198 -5.23682,17.2849 C-6.9305,16.55 -8.40723,15.5527 -9.66699,14.293 C-10.9268,13.0332 -11.9241,11.5635 -12.6589,9.88379 C-13.3938,8.2041 -13.7612,6.40544 -13.7612,4.48779 C-13.7612,2.57015 -13.3938,0.764486 -12.6589,-0.929199 C-11.9241,-2.62288 -10.9268,-4.09961 -9.66699,-5.35938 C-8.40723,-6.61914 -6.9305,-7.61296 -5.23682,-8.34082 C-3.54313,-9.06868 -1.73747,-9.43262 0.180176,-9.43262 M12.2109,3.54297 C12.099,2.2832 11.8225,1.10042 11.3816,-0.00537109 C10.9407,-1.11117 10.3633,-2.10498 9.64941,-2.98682 C9.15951,-2.79085 8.6766,-2.59839 8.20068,-2.40942 C7.72477,-2.22046 7.22786,-2.06999 6.70996,-1.95801 C6.94792,-1.13216 7.12988,-0.257324 7.25586,0.666504 C7.38184,1.59033 7.47282,2.54915 7.52881,3.54297 L12.2109,3.54297 M8.38965,-4.45654 C7.81576,-4.94645 7.21387,-5.39087 6.58398,-5.78979 C5.9541,-6.18872 5.26823,-6.54215 4.52637,-6.8501 C4.83431,-6.37419 5.12476,-5.87728 5.39771,-5.35938 C5.67065,-4.84147 5.9401,-4.26758 6.20605,-3.6377 C6.56999,-3.74967 6.93042,-3.87565 7.28735,-4.01563 C7.64429,-4.1556 8.01172,-4.30257 8.38965,-4.45654 M5.68115,3.54297 C5.68115,2.66113 5.61816,1.79679 5.49219,0.949951 C5.36621,0.103109 5.18424,-0.691243 4.94629,-1.43311 C4.20443,-1.29313 3.43107,-1.19515 2.62622,-1.13916 C1.82137,-1.08317 1.03402,-1.05518 0.26416,-1.05518 C-0.617676,-1.05518 -1.47502,-1.08317 -2.30786,-1.13916 C-3.14071,-1.19515 -3.94906,-1.34212 -4.73291,-1.58008 C-4.95687,-0.768229 -5.13184,0.0681152 -5.25781,0.928955 C-5.38379,1.78979 -5.44678,2.66113 -5.44678,3.54297 L5.68115,3.54297 M-5.44678,5.30664 C-5.44678,6.23047 -5.38379,7.1158 -5.25781,7.96265 C-5.13184,8.80949 -4.95687,9.61784 -4.73291,10.3877 C-3.94906,10.2477 -3.1652,10.1252 -2.38135,10.0203 C-1.59749,9.91528 -0.785645,9.86279 0.0541992,9.86279 C0.880046,9.86279 1.70939,9.91528 2.54224,10.0203 C3.37508,10.1252 4.17643,10.2477 4.94629,10.3877 C5.18424,9.64583 5.36621,8.84448 5.49219,7.98364 C5.61816,7.1228 5.68115,6.23047 5.68115,5.30664 L-5.44678,5.30664 M0.180176,-7.66895 C-0.715658,-7.66895 -1.5415,-7.27002 -2.29736,-6.47217 C-3.05322,-5.67432 -3.6901,-4.58252 -4.20801,-3.19678 C-3.46615,-3.0568 -2.72778,-2.95882 -1.99292,-2.90283 C-1.25806,-2.84684 -0.505697,-2.81885 0.26416,-2.81885 C0.922038,-2.81885 1.61141,-2.84684 2.33228,-2.90283 C3.05314,-2.95882 3.75651,-3.0568 4.44238,-3.19678 C3.92448,-4.58252 3.2911,-5.67432 2.54224,-6.47217 C1.79338,-7.27002 1.00602,-7.66895 0.180176,-7.66895 M-4.29199,-6.8501 C-4.97786,-6.59814 -5.62874,-6.26571 -6.24463,-5.85278 C-6.86051,-5.43986 -7.4554,-4.97445 -8.0293,-4.45654 C-7.66536,-4.30257 -7.32593,-4.1626 -7.01099,-4.03662 C-6.69604,-3.91064 -6.34961,-3.77767 -5.97168,-3.6377 C-5.70573,-4.26758 -5.43978,-4.84147 -5.17383,-5.35938 C-4.90788,-5.87728 -4.61393,-6.37419 -4.29199,-6.8501 M-9.28906,-3.11279 C-10.8568,-1.22314 -11.7596,0.995443 -11.9976,3.54297 L-7.29443,3.54297 C-7.23844,2.54915 -7.14746,1.59033 -7.02148,0.666504 C-6.89551,-0.257324 -6.71354,-1.13216 -6.47559,-1.95801 C-6.96549,-2.12598 -7.4554,-2.30444 -7.94531,-2.49341 C-8.43522,-2.68237 -8.88314,-2.88883 -9.28906,-3.11279 M-11.9976,5.30664 C-11.7596,7.79818 -10.8988,10.0238 -9.41504,11.9834 C-8.92513,11.7454 -8.44222,11.5285 -7.96631,11.3325 C-7.4904,11.1366 -6.99349,10.9616 -6.47559,10.8076 C-6.71354,9.98177 -6.89551,9.11043 -7.02148,8.1936 C-7.14746,7.27677 -7.23844,6.31445 -7.29443,5.30664 L-11.9976,5.30664 M-8.15527,13.3062 C-7.58138,13.8241 -6.96549,14.2895 -6.30762,14.7024 C-5.64974,15.1153 -4.97786,15.4548 -4.29199,15.7207 C-4.61393,15.2868 -4.90788,14.7969 -5.17383,14.251 C-5.43978,13.7051 -5.70573,13.1172 -5.97168,12.4873 C-6.34961,12.6273 -6.71704,12.7638 -7.07397,12.8967 C-7.43091,13.0297 -7.79134,13.1662 -8.15527,13.3062 M0.180176,16.5396 C1.00602,16.5396 1.79338,16.1511 2.54224,15.3743 C3.2911,14.5974 3.92448,13.5231 4.44238,12.1514 C3.68652,12.0114 2.95166,11.8889 2.23779,11.7839 C1.52393,11.679 0.796061,11.6265 0.0541992,11.6265 C-0.687663,11.6265 -1.41203,11.672 -2.1189,11.7629 C-2.82576,11.8539 -3.52214,11.9554 -4.20801,12.0674 C-3.6901,13.4391 -3.05322,14.5274 -2.29736,15.3323 C-1.5415,16.1371 -0.715658,16.5396 0.180176,16.5396 M4.52637,15.7207 C5.21224,15.4548 5.87712,15.1223 6.521,14.7234 C7.16488,14.3245 7.74577,13.88 8.26367,13.3901 C7.94173,13.2502 7.60929,13.1067 7.26636,12.9597 C6.92342,12.8127 6.56999,12.6833 6.20605,12.5713 C5.9401,13.2012 5.67065,13.7751 5.39771,14.293 C5.12476,14.8109 4.83431,15.2868 4.52637,15.7207 M9.64941,11.9834 C10.3633,11.0596 10.9407,10.0378 11.3816,8.91797 C11.8225,7.79818 12.099,6.5944 12.2109,5.30664 L7.52881,5.30664 C7.47282,6.34245 7.38184,7.32576 7.25586,8.25659 C7.12988,9.18742 6.94792,10.0658 6.70996,10.8916 C7.22786,11.0736 7.72477,11.2415 8.20068,11.3955 C8.6766,11.5495 9.15951,11.7454 9.64941,11.9834 "/>
</g>

<g fill="#f7901e" fill-opacity="1" stroke="none" transform="matrix(1,0,0,1,0,0)"
font-family="MS Shell Dlg 2" font-size="7.8" font-weight="400" font-style="normal" 
>
</g>
</g>
</svg>
